X:1
T:Down from Their Home on High
T:J. Carter, ca. 1881
T:Down from Their Home on High
T:Public Domain
T:Public Domain
C:J. Carter, ca. 1881
Z:Public Domain
%%score ( 1 2 ) ( 3 4 )
L:1/8
M:3/4
K:Ab
V:1 treble 
V:2 treble 
V:3 bass 
V:4 bass 
V:1
 [Ec]2 [Ec]2 [Ec]2 | [Ec][Fd] [Ec]4 | [DB]2 [DB]2 [DB]2 | [=DB][Dc] [DB]4 | [EB]2 [Ec]2 [Gd]2 | %5
w: 1.~Down from their|home on high,|Down thro’ the|star- ry sky,|An- gels de-|
w: 2.~He from the|grave is gone,|Tread- ing the|way a- lone;|Death now is|
w: 3.~Sing we Thy|praise for aye,|Who washed our|sins a- way;|Un- to Thy|
 [Gc][Gd] [Gc]4 | [_Ge]2 [Fe]2 [Fc]2 | [Ec]2 [EB]4 | [CA]2 [FA]2 [FA]2 | [=EG][FA] [EG]4 | %10
w: scend- ing fly,|While the earth|shak- eth;|Roll they the|stone a- way|
w: o- ver- thrown|By His en-|dea- vor!|Where is thy|vic- to- ry|
w: name al- way|We shall be|sing- ing:|Far down the|tracts of time,|
 [DF]2 [DF]2 [DF]2 | [CE][DF] [CE]4 | [CA]2 [Ec]2 [_Ge]2 | [_Ge][Fd] [Fd]4 | [Ed]2 [Ec]2 [EB]2 | %15
w: From where the|Sav- ior lay—|Out in- to|glo- rious day|His way He|
w: O Grave? and|where shall be,|O Death, our|fear of thee?|Van- ished for-|
w: Shall ev- ery|earth- ly clime|Join in the|song sub- lime,|With prais- es|
 [EB]2 [EA]4 ||"^Refrain" [Ec]2 [Ec]2 [Ec]2 | (cd) [_Ec]4 | [Fc]2 [Fc]2 [Fc]2 | (cd) [Gc]4 | %20
w: tak- eth.|||||
w: ev- er!|Loud hal- le-|lu- * jahs!|hal- le- lu-|jahs! * Our|
w: ring- ing!|||||
 [Fc]2 [Fc]2 [Fe]2 | (e2 d2) [FB]2 | (AG) [Gc]3 [EB] | [EA]4 [EA][EA] | [EA]2 [EA]2 [Ac][Ac] | %25
w: |||||
w: en Sav- ior,|to * Thee|sing: * Hal- le-|jah! Hal- le-|lu- jah! Hal- le-|
w: |||||
 [Ac]2 [Ac]2 [Ae][Ae] | [Ge]6 | A2 z4 |] %28
w: |||
w: lu- jah! * *|||
w: |||
V:2
 x6 | x6 | x6 | x6 | x6 | x6 | x6 | x6 | x6 | x6 | x6 | x6 | x6 | x6 | x6 | x6 || x6 | =E2 x4 | %18
w: ||||||||||||||||||
w: |||||||||||||||||Loud|
 x6 | G2 x4 | x6 | F4 x2 | E2 x4 | x6 | x6 | x6 | x6 | A2 x4 |] %28
w: ||||||||||
w: |ris-||we|lu-||||||
V:3
 [G,,A,]2 [G,,A,]2 [G,,A,]2 | [A,,A,][A,,A,] [A,,A,]4 | [E,G,]2 [E,G,]2 [E,G,]2 | %3
 [B,,A,][B,,A,] [B,,A,]4 | [E,G,]2 [E,A,]2 [E,B,]2 | [=E,B,][E,B,] [E,B,]4 | %6
 [C,A,]2 [D,A,]2 [=D,A,]2 | [E,A,]2 [E,G,]4 | [F,A,]2 [F,C]2 [F,C]2 | [C,C][C,C] (C2 B,2) | %10
 [D,A,]2 [D,A,]2 [D,A,]2 | [A,,A,][A,,A,] [A,,A,]4 | [A,,A,]2 [A,,A,]2 [C,A,]2 | %13
 [C,A,][D,A,] [D,A,]4 | [E,G,]2 [E,A,]2 [E,D]2 | [A,,D]2 [A,,C]4 || [A,C]2 [A,C]2 [A,C]2 | %17
 [G,B,]2 [G,B,]4 | [F,A,]2 [F,A,]2 [F,A,]2 | [=E,B,]2 [E,B,]4 | [F,=A,]2 [F,A,]2 [F,C]2 | %21
 (C2 B,2) [D,B,]2 | (CB,) [E,E]3 [E,D] | [A,,C]4 [A,,C][A,,C] | [A,,C]2 [A,,C]2 [A,E][A,E] | %25
 [A,E]2 [A,E]2 [A,C][A,C] | (B,4 D2) | [A,,A,C]2 z4 |] %28
V:4
 x6 | x6 | x6 | x6 | x6 | x6 | x6 | x6 | x6 | x2 C,4 | x6 | x6 | x6 | x6 | x6 | x6 || x6 | x6 | %18
 x6 | x6 | x6 | B,,4 x2 | E,2 x4 | x6 | x6 | x6 | E,6 | x6 |] %28

